X:1
T:Edith,10.8.10.8
T:Edith,10.8.10.8
T:Thomas Graham, 1884
T:Public Domain Courtesy of the Cyber Hymnal™
C:Thomas Graham, 1884
Z:Public Domain
Z:Courtesy of the Cyber Hymnal™
%%score ( 1 2 ) ( 3 4 )
L:1/8
Q:1/4=103
M:4/4
K:Eb
V:1 treble 
V:2 treble 
V:3 bass 
V:4 bass 
V:1
 E>[DF] | [EG]2 [EG]2 [EG]2 [Ee]>[Ed] | [Ec]2 [Ac]2 [GB]2 [FB]>[FA] | [EG]2 [EG]2 [FB]2 AG | %4
 [EG]4 [DF]2 [FB]>[FA] | [EG]2 [EG]2 [EG]2 [Ee]>[Ed] | [Ec]2 [Ec]2 !fermata![Ec]2 E[EF] | %7
 [EG]2 [FB][FA] [EG]2 [DF]2 | [DF]4 E2 |] %9
V:2
 E3/2 x/ | x8 | x8 | x6 F2 | x8 | x8 | x6 E x | x8 | x4 E2 |] %9
V:3
 [G,B,]>[F,A,] | [E,B,]2 [E,B,]2 [E,B,]2 [G,B,]>[G,B,] | A,2 [A,E]2 [E,E]2 [D,B,]>[D,B,] | %3
 [E,B,]2 [E,B,]2 [A,,C]2 [A,,C]2 | [B,,B,]4 [B,,B,]2 [D,B,]>[D,B,] | %5
 [E,B,]2 [E,B,]2 [E,B,]2 [G,B,]>[G,B,] | A,2 A,2 !fermata!A,2 [A,,C][A,,C] | %7
 [B,,B,]2 [A,,C][A,,C] [B,,B,]2 [B,,A,]2 | [B,,A,]4 [E,G,]2 |] %9
V:4
 x2 | x8 | A,2 x6 | x8 | x8 | x8 | A,2 A,2 A,2 x2 | x8 | x6 |] %9

